packages/gestalt-icons-android/vr-theme/ic_vr_cancel_gestalt.svg

<svg width="24" height="24" viewBox="0 0 24 24" fill="none" xmlns="http://www.w3.org/2000/svg">
<path d="M12.0001 13.4143L20.293 21.7072L21.7072 20.293L13.4143 12.0001L21.7072 3.70718L20.293 2.29297L12.0001 10.5859L3.70718 2.29297L2.29297 3.70718L10.5859 12.0001L2.29297 20.293L3.70718 21.7072L12.0001 13.4143Z" fill="black"/>
</svg>

<svg xmlns="http://www.w3.org/2000/svg" width="24" height="24"><path d="m12 13.41 8.3 8.3 1.4-1.42L13.42 12l8.3-8.3-1.42-1.4-8.3 8.28-8.3-8.3L2.3 3.7l8.28 8.3-8.3 8.3 1.42 1.4z"/></svg>
